X:1
T:Ben venga Maggio
T:Adriano Banchieri Bolognese
T:Source : Canzonette a tre voci di A.Banchieri---Venetia---R.Amadino---1597. Editor : André Vierendeels  (08/03/17).
T:Notes : Original clefs : C1, C1, C4 Editorial accidentals above the staff Dotted brackets indicate black notes Sub-heading :"Mascherata di Cacciatori"
T:Ben venga Maggio
T:©
T:©
T:©
T:©
C:Adriano Banchieri Bolognese
Z:©
%%score [ 1 2 3 ]
L:1/8
Q:1/4=100
M:4/4
K:F
V:1 treble nm="Soprano 1" snm="S 1"
V:2 treble nm="Soprano 2" snm="S 2"
V:3 treble-8 nm="Tenor" snm="T"
V:1
"^1)" F4 A3 B | c4 F4 | z2 A2 A2 A2 | G4 A2 c2 | A3 B c4 | G4 z2 G2 | G2 G2 G4 | G4 z2 c2 | %8
w: Ben ven- ga|Mag- gio,|ben ven- ga|Mag- gio, ben|ven- ga Mag-|gio, ben|ven- ga Mag-|gio, u-|
w: Et al- la|cac- cia|et al- la|cac- cia, zt|al- la cac-|cia, et|al- la cac-|cia, an-|
 d3 c B2 B2 | c3 B/A/ G4 | A2 F2 A3 B | c4 F4 | z2 A2 A2 A2 | G4 A2 c2 | A3 B c4 | G4 z2 G2 | %16
w: di- te Nin- fe|bel- * * *|le, ben ven- ga|Mag- gio,|ben ven- ga|Mag- gio, ben|ven- ga Mag-|gio, ben|
w: dia- mo'ar- di ta|men- * * *|te, et al- la|cac- cia,|et al- la|cac- cia, et|al- la cac-|cia, et|
 G2 G2 G4 | G4 z2 c2 | d3 c B2 B2 | c3 B/A/ G4 | A2 A2 G4 | z2 A2 G4 | z2 c2 c2 c2 | A2 =B2 c2 c2 | %24
w: ven- ga Mag-|gio, u-|di- te Nin- fe|bel- * * *|le, e voi,|e voi,|Pa- sto- ri'er-|ran- * ti,- u-|
w: al- la cac-|cio, an-|dia- mo'ar- di- ta|men- * * *|te, su- su,|su, su,|toc- ca- te'i|cor- * ni, an-|
"^b" B2 A2 G2 F2 | E2 F4 E2 | F2 AA B2 c2- | c2 BA =B4 |[M:6/4] c4 G2 G2 G2 A2 | %29
w: di- te tut- ti|quan- * *|ti, tut- ti quan- *||ti, so- nia- mo, bal-|
w: dia- mo'ar- di- ta-|men- * *|te, e con que- sti|_ con- * tor-|ni, cac- cia- mo, gri-|
 F2 F2 G2 A2 A2 G2 | G2 G2 A2 F2 F2 G2 |[M:4/4] A4 A2 c2 | B2 A2 G2 A2 | B4 B4 | c2 A2 G4 | %35
w: lia- mo, can- tia- mo, so-|nia- mo, bal- lia- mo, can-|ti- mo, con|fa la la li|lon, fa|la li le|
w: dia- mo,- chia- mia- mo, cac-|cia- mo, chia- mia- mo, can-|tia- mo, con|fa la la li|lon, fa|la li le|
[M:6/4] A4 G2 G2 G2 A2 | F2 F2 G2 A2 A2 G2 | G2 G2 A2 F2 F2 G2 |[M:4/4] A4 A2 c2 | B2 A2 G2 A2 | %40
w: la, so- nia- mo, bal-|lia- mo, can- tia- mo, so-|nia- mo, bal- lia- mo, can-|tia- mo, con|fa la la li|
w: la, cac- cia- mo, gri-|dia- mo, chia- mia- mo cac-|cia- mo, gri- dia- mo, chia-|mia- mo, con|fa la la li|
 B4 B4 | c2 A2 G4 | A8 |] %43
w: lon, fa|la li le|la.|
w: lon, fa|la li le|la.|
V:2
"^2)" z8 |"^1)" F4 A3 B | c4 F2 F2 | F2 E2 F4 | F2 c2 A3 B | c4 F2 E2 | E2 E2 D4 | E2 G2 A3 G | %8
w: |Ben ven- ga|Mag- gio, ben|ven- ga Mag-|gio, ben ven- ga|Mag- gio, ben|ven- ga Mag-|gio, u- di- te|
w: |E cia- scun|no- stri, e|cia- scun no-|stri, e cia- scun|no- stri, e|cia- scun no-|* stri, va- lo-|
 F2 G2 G3 F | E2 F4 E2 | F8 | z2 F2 A3 B | c4 F2 F2 | F2 E2 F4 | F2 c2 A3 B | c4 F2 E2 | E2 E2 D4 | %17
w: Vin- fe bel- *||le,|ben ven- ga|Mag- gio, ben|ven- ga Mag-|gio, ben ven- ga|Mag- gio, ben|ven- ga Mag-|
w: ro- so'il co- *||re,|e cia- scun|no- stri, e|cia- scun no-|stri, e cia- scun|no- stri, e|cia- scun no-|
 E2 E2 A3 G | F2 G2 G3 F | E2 F4 E2 | F2 F2 E4 | z2 F2 E4 | z2 G2 G2 G2 | ^F4 G4 | z2 c2 B2 A2 | %25
w: gio, u- di- te|Nin- fe bel- *||le, e voi,|e voi,|Pa- sto- ri'er-|ran- ti,|u- di- te|
w: * stri, va- lo-|ro- so'il co- *||re, con por,|con por,|o- gni pen-|sie- ro,|il far si|
 G2 F2 G2 GA | B2 c2 B2 A2 | G8 |[M:6/4] E4 E2 E2 E2 F2 | D2 D2 E2 F2 F2 E2 | E2 E2 F2 D2 D2 E2 | %31
w: tut- ti quan- ti, u-|di- te tut- ti|quan-|ti, so- nia- mo, bal-|lia- mo, can- tia- mo, so-|nia- mo, bal- lia- mo, can-|
w: buon cor- cie- ro, il|far si buon cor-|cie-|ro, bur- lan- do, scher-|zan- do'e tres- can- do, bur-|lan- do, scher- zan- do'e trea-|
[M:4/4] F4 F2 A2 | G2 F2 D2 E2 | F4 G4 | E2 F2 F2 E2 |[M:6/4] F4 E2 E2 E2 F2 | D2 D2 E2 F2 F2 E2 | %37
w: tia- mo, con|fa la la li|lon, fa|la li le- *|la, so- nia- mo, bal-|ia- mo, can- tia- mo, so-|
w: can- do, con|fa la la li|lon, fa|la li le _|la, bur- lan- do, scher-|zan- do'e tres- can- do, bur-|
 E2 E2 F2 D2 D2 E2 |[M:4/4] F4 F2 A2 | G2 F2 D2 E2 | F4 G4 | E2 F2 F2 E2 | F8 |] %43
w: nia- mo, bal- lia- mo, can-|tia- mo, con|fa la la li|lon, fa|la li le _|la.|
w: lan- do, scher- zan- do'e tres-|can- do, con|fa la la li|lon, fa|la li le _|la.|
V:3
 z8 |"^3)" z8 |"^1)" F4 A3 B | c4 F4 | z2 F2 F2 F2 | E4 F2 c2 | c2 c2 =B4 | c4 z2 F2 | B3 A G2 G2 | %9
w: ||Ben ven- ga|Mag- gio,|ben ven- ga|Mag- gio, ben|ven- ga mag-|gio, u-|di- te Nin- fe|
 A3 B c4 | F8 | z8 | z2 F2 A3 B | c4 F4 | z2 F2 F2 F2 | E4 F2 c2 | c2 c2 =B4 | c4 z2 F2 | %18
w: bel- * *|le,||ben ven- ga|Mag- gio,|ben ven- ga|Mag- gio, ben|ven- ga Mag-|gio, u-|
 B3 A G2 G2 | A3 B c4 | F4 z2 c2 | F4 z2 C2 | F2 c2 c2 c2 | d4 c4 | z8 | z4 z2 c2 | B2 A2 G2 F2 | %27
w: di- te Nin- fe|bel- * *|le, e|voi, e|voi, Pa- sto- ri'er-|ran- ti,||u-|di- te tut- ti|
 G8 |[M:6/4] C4 c2 c2 c2 A2 | B2 B2 G2 F2 F2 c2 | c2 c2 A2 B2 B2 G2 |[M:4/4] F4 F2 F2 | %32
w: quan-|ti, so- nia- mo, bal-|lia- mo, can- tia- mo, so-|nia- mo, bal- lia- mo, can|tia- mo, con|
 G2 A2 B2 c2 | B4 G4 | A2 F2 c4 |[M:6/4] F4 c2 c2 c2 A2 | B2 B2 G2 F2 F2 c2 | c2 c2 A2 B2 B2 G2 | %38
w: fa- la la li|lon, fa|la li le-|la, so- nia- mo, bal-|lia- mo, can- tia- mo, so-|nia- mo, bal- lia- mo, can-|
[M:4/4] F4 F2 F2 | G2 A2 B2 c2 | B4 G4 | A2 F2 c4 | F8 |] %43
w: tia- mo, con|fa la la li|lon, fa|la li le|la.|

